src/app/assets/svg/security.svg

<?xml version="1.0" encoding="UTF-8"?>
<svg width="24px" height="24px" viewBox="0 0 24 24" version="1.1" xmlns="http://www.w3.org/2000/svg" xmlns:xlink="http://www.w3.org/1999/xlink">
    <!-- Generator: Sketch 55.2 (78181) - https://sketchapp.com -->
    <title>Icon / 24px / shield-check-regular</title>
    <desc>Created with Sketch.</desc>
    <g id="Icon-/-24px-/-shield-check-regular" stroke="none" stroke-width="1" fill-rule="evenodd">
        <path d="M8.37499998,11.0039062 C8.19140623,10.8203125 7.89453123,10.8203125 7.71093748,11 L6.82421872,11.8789062 C6.64062497,12.0625 6.64062497,12.359375 6.82031247,12.5429688 L10.3671875,16.1171875 C10.5507812,16.3007813 10.8476562,16.3007813 11.03125,16.1210938 L17.7734375,9.43359374 C17.9570313,9.24999999 17.9570313,8.95312498 17.7773438,8.76953123 L16.8984375,7.88281248 C16.7148438,7.69921873 16.4179688,7.69921873 16.234375,7.87890623 L10.7109375,13.3554688 L8.37499998,11.0039062 Z M20.2226563,5.26953122 L12.7226563,2.1445312 C12.261251,1.95312166 11.7426553,1.95312166 11.28125,2.1445312 L3.78124996,5.26953122 C3.08203121,5.55859372 2.62499995,6.24218747 2.62499995,6.99999997 C2.62499995,14.7539063 7.09765623,20.1132813 11.2773437,21.8554688 C11.7382812,22.0468751 12.2578125,22.0468751 12.71875,21.8554688 C16.0664063,20.4609375 21.375,15.6445313 21.375,6.99999997 C21.375,6.24218747 20.9179688,5.55859372 20.2226563,5.26953122 Z M12,20.125 C8.19140623,18.5390625 4.49999996,13.6132813 4.49999996,6.99999997 L12,3.87499996 L19.5,6.99999997 C19.5,13.7890625 15.65625,18.6015625 12,20.125 Z" id="shield-check-regular"></path>
    </g>
</svg>

<svg xmlns="http://www.w3.org/2000/svg" width="24" height="24"><defs/><path fill-rule="evenodd" d="M8.375 11.004A.473.473 0 007.711 11l-.887.879a.473.473 0 00-.004.664l3.547 3.574c.184.184.48.184.664.004l6.742-6.687a.473.473 0 00.004-.664l-.879-.887a.473.473 0 00-.664-.004l-5.523 5.476-2.336-2.351zM20.223 5.27l-7.5-3.125a1.88 1.88 0 00-1.442 0l-7.5 3.125c-.699.289-1.156.972-1.156 1.73 0 7.754 4.473 13.113 8.652 14.855.461.192.98.192 1.442 0 3.347-1.394 8.656-6.21 8.656-14.855 0-.758-.457-1.441-1.152-1.73zM12 20.125C8.191 18.539 4.5 13.613 4.5 7L12 3.875 19.5 7c0 6.79-3.844 11.602-7.5 13.125z"/></svg>
